!!!!SEGMENT: pl-wtm--r-2007--004_smietanski-emil-wladyslaw--sonate-op-2-finale-presto.krn
!!!cenid: 18xx:1993
!!!COM: Śmietański, Emil Władysław
!!!COM-rism: pe50041781
!!!CDT: 1845-1886
!!!CNT: Polish
!!!OTL: Sonate op. 2 – Finale Presto
!!!PDT: 1865
!!!AGN: Secular; Sonata
!!!SMS-siglum: PL-Wtm
!!!SMS-shelfmark: R 2007
!!!NIFC-rismID: 1001112887
!!!URL-scan: http://repozytorium.nifc.pl/skany/pl-wtm-nut--r2007
!!!ONB-nifc: UWAGA: części Sonaty: 1. Allegro assai, 2. Larghetto, 3. Scherzo, 4. Finale. Presto
!!!SMS-variant:
!!!SMS-altvar:
**kern	**kern	**kern	**dynam
*part3	*part2	*part1	*part1
*staff3	*staff2	*staff1	*
*I"Piano	*I"Piano	*I"Violon	*
*I'pf	*I'pf	*I'vl	*
*clefF4	*clefG2	*clefG2	*
*k[b-e-a-d-]	*k[b-e-a-d-]	*k[b-e-a-d-]	*
*M2/4	*M2/4	*M2/4	*
=1	=1	=1	=1
!	!LO:TX:t=P:problem:all\right	!LO:TX:i:a:t=Presto. piu tosto Prestissimo.	!
!LO:TX:t=P:problem:all\right	!LO:TX:i:a:t=Finale Presto.	!LO:TX:a:t=3	!
!	!	!LO:TX:a:t=P:problem:w źródle jedna pauza wielotaktowa	!
4A- 4AA-\	4a-\	2r	.
8FL 8FF\	8f\L	.	.
8GJ 8GG\	8g\J	.	.
=2	=2	=2	=2
4.E- 4.EE-\	4.e-\	2r	.
8F 8FF\	8f\	.	.
=3	=3	=3	=3
8E-L 8EE-\	8e-\L	2r	.
16D-L 16DD-\	16d-\L	.	.
16CJJ 16CC\	16c\JJ	.	.
8BB-L 8BBB-\	8B-\L	.	.
8CJ 8CC\	8c\J	.	.
=4	=4	=4	=4
*	*	*2\right	*
4AA- 4AAA-\	4A-\	4r	.
4r	4r	8r	.
!	!	!LO:TX:t=P:problem:all\right	!
.	.	8ee-\	.
*clefG2	*	*	*
=5	=5	=5	=5
8r	4cc\	4aa-\	.
8a-L 8A-\	.	.	.
!	!	!	!LO:DY:b:rj
8a- 8A-\	8cc\L	8ff\L	ppp
!	!	!LO:TX:b:i:t=staccato	!
8a-J 8A-\	8cc\J	8gg\J	.
=6	=6	=6	=6
8r	4b-\	4.ee-\	.
8gL 8G\	.	.	.
8g 8G\	8b-\L	.	.
8gJ 8G\	8b-\J	8een\	.
=7	=7	=7	=7
8r	4a-\	8ff^^>\L	.
8fL 8F\	.	(>16ee-\L	.
.	.	16dd-\JJ)	.
8f 8F\	8a-\L	8cc\L	.
8fJ 8F\	8a-\J	8bn\J	.
=8	=8	=8	=8
8enL 8En\	4g\	4cc\	.
*clefF4	*	*	*
8C\	.	.	.
8CC\J	8r	4r	.
8r	8c\	.	.
=9	=9	=9	=9
!	!	!LO:TX:a:t=3	!
!	!	!LO:TX:a:t=P:problem:w źródle jedna pauza wielotaktowa	!
4F 4FF\	4f\	2r	.
8CL 8CC\	8c\L	.	.
8D-J 8DD-\	8d-\J	.	.
=10	=10	=10	=10
4.AA- 4.AAA-\	4.A-\	2r	.
8BB- 8BBB-\	8B-\	.	.
=11	=11	=11	=11
8CL 8CC\	8c\L	2r	.
16BB-L 16BBB-\	16B-\L	.	.
16AA-JJ 16AAA-\	16A-\JJ	.	.
8GGL 8GGG\	8G\L	.	.
8AA-J 8AAA-\	8A-\J	.	.
!LO:LB:g=original	!	!	!
=12	=12	=12	=12
4FF 4FFF\	4F\	4r	.
4r	4r	8r	.
.	.	8cc\	.
=13	=13	=13	=13
!	!	!	!LO:DY:b
8r	4a-\	4ff\	p
8a-L 8A-\	.	.	.
8a- 8A-\	8a-\L	8cc\L	.
8a-J 8A-\	8a-\J	8dd-\J	.
=14	=14	=14	=14
8r	4g-X\	4.a-\	.
8e-L 8E-\	.	.	.
8e- 8E-\	8g-\L	.	.
8e-J 8E-\	8g-\J	8an\	.
!	!	!LO:LB:g=original	!
=15	=15	=15	=15
!	!	!	!LO:HP:a:t=cresc.
8r	8f\	8b-\L	<
8d- 8D-\	8r	16a-\L	.
.	.	16g\JJ	.
8r	8G\	8f\L	.
8d- 8E-\	8r	8e-\J	.
=16	=16	=16	=16
8c\L	4A-\	4a-|>\	.
8A-\	.	.	.
8AA-\J	8r	4r	.
8r	8a-\	.	.
=17	=17	=17	=17
*Xtuplet	*	*	*
!	!	!LO:TX:a:t=3	!
!	!	!LO:TX:a:t=P:problem:w źródle jedna pauza wielotaktowa	!
12BB-\L	4a-\	2r	.
12E-\	.	.	.
12B-\J	.	.	.
12e-\L	8g\L	.	.
12B-\	.	.	.
.	8dd-\J	.	.
12E-\J	.	.	.
=18	=18	=18	=18
12AA-\L	4dd-\	2r	.
12E-\	.	.	.
12A-\J	.	.	.
12e-\L	8cc\L	.	.
12A-\	.	.	.
.	8aa-\J	.	.
12E-\J	.	.	.
=19	=19	=19	=19
12BB-\L	4aa-\	2r	.
12E-\	.	.	.
12G\J	.	.	.
12B-\L	8gg\L	.	.
12G\	.	.	.
.	8ddd-\J	.	.
12E-\J	.	.	.
=20	=20	=20	=20
12AA-\L	4ddd-\	4r	.
12E-\	.	.	.
12A-\J	.	.	.
12c\L	8ccc\	8r	.
12A-\	.	.	.
.	8r	8a-\	.
12E-\J	.	.	.
=21	=21	=21	=21
*	*Xtuplet	*	*
12BB-\L	12B-\L	4a-\	.
12E-\	12e-\	.	.
12G\J	12g\J	.	.
12e-\L	12ee-\L	8g\L	.
12G\	12g\	.	.
.	.	8dd-\J	.
12E-\J	12e-\J	.	.
=22	=22	=22	=22
!	!	!LO:TX:i:a:t=espressivo molto	!
12AA-\L	12A-\L	4dd-\	.
12E-\	12e-\	.	.
12A-\J	12a-\J	.	.
12e-\L	12ee-\L	8cc\L	.
12A-\	12a-\	.	.
.	.	8aa-\J	.
12E-\J	12e-\J	.	.
!LO:PB:g=original	!	!	!
=23	=23	=23	=23
12BB-\L	12B-\L	4aa-\	.
12En\	12en\	.	.
12G\J	12g\J	.	.
12B-\L	12b-\L	8gg\L	.
12G\	12g\	.	.
.	.	8ddd-\J	.
12E\J	12e\J	.	.
=24	=24	=24	=24
12AA-\L	12A-\L	4ddd-^^<\	.
12F\	12f\	.	.
12A-\J	12a-\J	.	.
12c\L	12cc\L	8ccc\L	.
12A-\	12a-\	.	.
.	.	8ff\J	.
12F\J	12f\J	.	.
=25	=25	=25	=25
12AAn\L	12An\L	4ff^^>\	.
12E-\	12e-\	.	.
12F\J	12f\J	.	.
12c\L	12cc\L	8ee-\L	.
12F\	12f\	.	.
.	.	8aan\J	.
12E-\J	12e-\J	.	.
=26	=26	=26	=26
12BB-\L	12B-\L	4ccc^^>\	.
12Dn\	12dn\	.	.
12F\J	12f\J	.	.
12B-\L	12b-\L	8bb-\L	.
12F\	12f\	.	.
.	.	8ddn\J	.
12D\J	12d\J	.	.
!	!	!LO:LB:g=original	!
=27	=27	=27	=27
12GG\L	12G\L	4ee-^^>\	.
12D-\	12d-\	.	.
12E-\J	12e-\J	.	.
12B-\L	12b-\L	8dd-\L	.
12E-\	12e-\	.	.
.	.	8gg\J	.
12D-\J	12d-\J	.	.
=28	=28	=28	=28
12AA-\L	12A-\L	4bb-^^>\	.
12C\	12c\	.	.
12E-\J	12e-\J	.	.
12A-\L	12a-\L	8aa-\L	.
12E-\	12e-\	.	.
.	.	8cc\J	.
12C\J	12c\J	.	.
=29	=29	=29	=29
12DD-\L	12D-</L	4cc^^>\	.
12AA-\	12A-</	.	.
12BB-\J	12B-</J	.	.
12F\L	12f</L	8b-\L	.
12BB-\	12B-</	.	.
.	.	8een\J	.
12AA-\J	12A-</J	.	.
=30	=30	=30	=30
12EE-\L	12E-</L	4gg^^>\	.
12GG\	12G</	.	.
12D-\J	12d-</J	.	.
!	!LO:TX:t=P:problem:mixedbeam	!	!
12G\L	12g\L	8ff\L	.
12D-\	12d-</	.	.
.	.	8dd-\J	.
12GG\J	12G</J	.	.
=31	=31	=31	=31
!	!	!	!LO:DY:a:t=p.
12FF\L	12F</L	4bn\	p
12AA-\	12A-</	.	.
12C\J	12c</J	.	.
!	!LO:TX:t=P:problem:mixedbeam	!	!
12A-\L	12a-\L	4cc\	.
12C\	12c</	.	.
12AA-\J	12A-</J	.	.
=32	=32	=32	=32
!	!LO:TX:t=P:problem:mixedbeam	!	!
12GG\L	12G</L	4r	.
12E-\	12e-\	.	.
12G\J	12g\J	.	.
!	!	!	!LO:HP:a
12B-\L	12b-\L	4ee-\	<
12G\	12g\	.	.
12E-\J	12e-\J	.	.
!LO:LB:g=original	!	!	!
=33	=33	=33	=33
!	!LO:TX:t=P:problem:mixedbeam	!	!
12AA-\L	12A-</L	4r	.
12E-\	12e-\	.	.
12A-\J	12a-\J	.	.
12c\L	12cc\L	4ff 4ee-\	.
12A-\	12a-\	.	.
12E-\J	12e-\J	.	.
=34	=34	=34	=34
12BB-\L	12B-\L	4r	.
12E-\	12e-\	.	.
12G\J	12g\J	.	.
!	!LO:TX:a:t=es	!	!
12e-\L	12ee-\L	4gg 4ee-\	.
12G\	12g\	.	.
12E-\J	12e-\J	.	.
=35	=35	=35	=35
12C\L	12c\L	4r	.
12E-\	12e-\	.	.
12A-\J	12a-\J	.	.
12e-\L	12ee-\L	4aa- 4ee-\	.
12A-\	12a-\	.	.
12E-\J	12e-\J	.	.
=36	=36	=36	=36
12C\L	12c\L	4aan 4ee-^^>\	.
12G-X\	12g-X\	.	.
12An\J	12an\J	.	.
12e-\L	12ee-\L	8aa 8ee-^^>\	.
12A\	12a\	.	.
.	.	8r	.
12G-\J	12g-\J	.	.
=37	=37	=37	=37
12C\L	12c\L	4r	.
12G-X\	12g-X\	.	.
12An\J	12an\J	.	.
12e-\L	12ee-\L	4aan 4gg-X^^>\	.
12A\	12a\	.	.
12G-\J	12g-\J	.	[
!	!	!LO:PB:g=original	!
=38	=38	=38	=38
!	!	!	!LO:DY:a:t=ff.
!	!LO:TX:a:t=f	!	!
12BBn\L	12Bn\L	4aan 4ff\	ff
12F\	12f\	.	.
12An\J	12an\J	.	.
12e-\L	12ee-\L	4aa 4ee-\	.
12A\	12a\	.	.
!	!LO:TX:a:t=f	!	!
12F\J	12f\J	.	.
=39	=39	=39	=39
12BB-\L	12B-\L	4.bb-\	.
12F\	12f\	.	.
12dn\J	12ddn\J	.	.
12C-X\L	12c-X\L	.	.
12F\	12f\	.	.
.	.	8aan\	.
12e-\J	12ee-\J	.	.
=40	=40	=40	=40
12BB-\L	12B-\L	4.bb-\	.
12F\	12f\	.	.
12dn\J	12dd-\J	.	.
12BBn\L	12c-X\L	.	.
12F\	12f\	.	.
.	.	8aan\	.
12e-\J	12ee-\J	.	.
=41	=41	=41	=41
16BB-\LL	16B-\LL	16bb-\LL	.
!	!	!	!LO:DY:a:t=ff.
16dn\	16ddn\	16aan\	ff
16C-X\	16c-X\	16bb-\	.
16e-\JJ	16ee-\JJ	16aa\JJ	.
*rep	*	*	*
16BB-\LL	16B-\LL	16bb-\LL	.
16dn\	16ddn\	16aa\	.
16C-X\	16c-X\	16bb-\	.
16e-\JJ	16ee-\JJ	16aa\JJ	.
*Xrep	*	*	*
=42	=42	=42	=42
4BB-\	4B-/	4bb-'>\	.
4B-\	8r	4r	.
.	8b-\	.	.
!LO:LB:g=original	!	!	!
=43	=43	=43	=43
!	!	!LO:TX:a:t=15	!
!	!	!LO:TX:a:t=P:problem:w źródle jedna pauza wielotaktowa	!
8gL 8E-\	4.b-\	2r	.
8g 8E-\	.	.	.
8gJ 8E-\	.	.	.
8r	8ee-\	.	.
=44	=44	=44	=44
*rep	*	*	*
8gL 8E-\	4.ee-\	2r	.
8g 8E-\	.	.	.
8gJ 8E-\	.	.	.
8r	8gg\	.	.
*Xrep	*	*	*
=45	=45	=45	=45
8gL 8E-\	8bb-\L	2r	.
8g 8E-\	16aan\L	.	.
.	16bb-\JJ	.	.
8f#XJ 8E-\	8ccc\L	.	.
8r	16bb-\L	.	.
.	16aa\JJ	.	.
=46	=46	=46	=46
8gL 8E-\	4.bb-\	2r	.
8g 8E-\	.	.	.
8gJ 8E-\	.	.	.
8r	8ggg\	.	.
*clefG2	*	*	*
=47	=47	=47	=47
8a-L 8e-\	4.fff\	2r	.
8b- 8e-\	.	.	.
8ccJ 8e-\	.	.	.
8r	8eee-\	.	.
=48	=48	=48	=48
8ccL 8e-\	4.ccc\	2r	.
8ddn 8e-\	.	.	.
8ee-J 8e-\	.	.	.
8ryy	8bb-\	.	.
=49	=49	=49	=49
8ddnL 8b-\	8ff\L	2r	.
8dd 8b-\	16een\L	.	.
.	16ff\JJ	.	.
8ddJ 8b-\	8gg\L	.	.
8r	16ff\L	.	.
.	16ee\JJ	.	.
=50	=50	=50	=50
8ddnL 8b-\	4ff\	2r	.
8B-\	.	.	.
*clefF4	*	*	*
8BB-\J	8bb-\L	.	.
8r	8b-\J	.	.
=51	=51	=51	=51
8gL 8E-\	4.b-\	2r	.
8g 8E-\	.	.	.
8gJ 8E-\	.	.	.
8r	8ee-\	.	.
=52	=52	=52	=52
*rep	*	*	*
8gL 8E-\	4.ee-\	2r	.
8g 8E-\	.	.	.
8gJ 8E-\	.	.	.
8r	8gg\	.	.
*Xrep	*	*	*
=53	=53	=53	=53
8gL 8E-\	8bb-\L	2r	.
8g 8E-\	16aan\L	.	.
.	16bb-\JJ	.	.
8f#XJ 8E-\	8ccc\L	.	.
8r	16bb-\L	.	.
.	16aa\JJ	.	.
!LO:LB:g=original	!	!	!
=54	=54	=54	=54
*clefG2	*	*	*
8gL 8e-\	4.bb-\	2r	.
8g 8e-\	.	.	.
8gJ 8e-\	.	.	.
8r	8ggg\	.	.
=55	=55	=55	=55
8gL 8dn\	4.dddn\	2r	.
8an 8d\	.	.	.
8b-J 8d\	.	.	.
8r	8ccc\	.	.
=56	=56	=56	=56
8b-L 8dn\	4.bb-\	2r	.
8cc 8d\	.	.	.
8ddnJ 8dn\	.	.	.
8r	8aan\	.	.
=57	=57	=57	=57
8ee-L 8cc 8dn\	8gg\L	2r	.
8ee-J 8cc 8d\	16ff#X\L	.	.
.	16gg\JJ	.	.
8ddnL 8cc 8d\	8aan\L	.	.
8ddJ 8cc 8d\	16gg\L	.	.
.	16ff#X\JJ	.	.
=58	=58	=58	=58
!	!	!	!LO:DY:a
16b- 16g\	16gg\	8gg\L	p
16r	16r	.	.
8r	8r	16ff#X\L	.
.	.	16gg\JJ	.
4r	4r	8aan\L	.
.	.	16gg\L	.
.	.	16ff#\JJ	.
*clefF4	*	*	*
=59	=59	=59	=59
8e-L 8c 8Dn\	8g\L	2r	.
8e-J 8c 8D\	16f#X\L	.	.
.	16g\JJ	.	.
8dnL 8c 8D\	8an\L	.	.
8dJ 8c 8D\	16g\L	.	.
.	16f#\JJ	.	.
=60	=60	=60	=60
!	!	!	!LO:DY:a
16B- 16G\	16g\	8g\L	p
16r	16r	.	.
8r	8r	16f#X\L	.
.	.	16g\JJ	.
4r	4r	8an\L	.
.	.	16g\L	.
.	.	16f#X\JJ	.
!	!	!LO:LB:g=original	!
=61	=61	=61	=61
!	!	!	!LO:DY:a
8G\L	8g\L	8g\L	f
16F#X\L	16f#X\L	16an\L	.
16G\JJ	16g\JJ	16b-\JJ	.
8A-X\L	8a-X\L	8cc\L	.
16G\L	16g\L	16b-\L	.
16Fn\JJ	16fn\JJ	16a-X\JJ	.
=62	=62	=62	=62
8E-\L	8e-\L	8g\L	.
16Dn\L	16dn\L	16f#X\L	.
16E-\JJ	16e-\JJ	16g\JJ	.
8Fn\L	8f\L	8a-y\L	.
16E-\L	16e-\L	16g\L	.
16D\JJ	16d\JJ	16fn\JJ	.
=63	=63	=63	=63
8C\L	8c\L	8e-\L	.
16BBn\L	16Bn\L	16dn\L	.
16C\JJ	16c\JJ	16e-\JJ	.
8Dn\L	8dn\L	8f\L	.
16C\L	16c\L	16e-\L	.
16BB-y\JJ	16B-X\JJ	16d\JJ	.
!LO:LB:g=original	!	!	!
=64	=64	=64	=64
8AA-\L	8A-\L	8c\L	.
16GG\L	16G\L	16Bn\L	.
16AA-\JJ	16A-\JJ	16c\JJ	.
8BB-\L	8B-\L	8dn\L	.
8BB-J 8BBB-\	8dnJ 8A-\	16c\L	.
.	.	16B-y\JJ	.
=65	=65	=65	=65
!	!	!	!LO:DY:a
8BB-L 8EE-\	8e-L 8G\	4.B-\	f
8BB- 8EE-\	8e- 8G\	.	.
8BB-J 8EE-\	8e-J 8G\	.	.
8r	8r	8e-'>\	.
=66	=66	=66	=66
8BB-L 8EE-\	8e-L 8G\	4.e-\	.
8BB- 8EE-\	8e- 8G\	.	.
8BB-J 8EE-\	8e-J 8G\	.	.
8r	8r	(>8g\	.
=67	=67	=67	=67
8BB-L 8EE-\	8e-L 8G\	8b-'>\L)	.
8BB- 8EE-\	8e- 8G\	16an\L	.
.	.	16b-\JJ	.
8AAnJ 8EE-\	8e-J 8F#X\	8cc\L	.
8r	8r	16b-\L	.
.	.	16a\JJ	.
=68	=68	=68	=68
8BB-L 8EE-\	8e-L 8G\	4.b-\	.
8BB- 8EE-\	8e- 8G\	.	.
8BB-J 8EE-\	8e-J 8G\	.	.
8r	8r	8gg\	.
=69	=69	=69	=69
8AA-L 8EE-\	8e-L 8A-\	4.ff\	.
8BB- 8EE-\	8e- 8B-\	.	.
8CJ 8EE-\	8e-J 8c\	.	.
8r	8r	8ee-\	.
=70	=70	=70	=70
8CL 8EE-\	8a-L 8c\	4.cc\	.
8Dn 8EE-\	8a- 8dn\	.	.
8E-J 8EE-\	8gJ 8e-\	.	.
8r	8r	8b-\	.
!	!	!LO:LB:g=original	!
=71	=71	=71	=71
8FL 8C\	8e-L 8c\	8f\L	.
8F 8C\	8e- 8B-\	16en\L	.
.	.	16f\JJ	.
8FJ 8C\	8e-J 8An\	8g\L	.
8r	8r	16f\L	.
.	.	16en\JJ	.
=72	=72	=72	=72
8FL 8BB-\	8dnL 8A-X\	4f\	.
8BB-\	8d 8A-\	.	.
8BB-\J	8dJ 8A-\	8b-\L	.
8r	8r	8B-\J	.
=73	=73	=73	=73
8BB-L 8EE-\	8e-L 8G\	4.B-\	.
8BB- 8EE-\	8e- 8G\	.	.
8BB-J 8EE-\	8e-J 8G\	.	.
8r	8r	8e-\	.
=74	=74	=74	=74
8BB-L 8EE-\	8e-L 8G\	4.e-\	.
8BB- 8EE-\	8e- 8G\	.	.
8BB-J 8EE-\	8e-J 8G\	.	.
8r	8r	(>8g\	.
!LO:PB:g=original	!	!	!
=75	=75	=75	=75
8BB-L 8EE-\	8e-L 8G\	8b-'>\L)	.
8BB- 8EE-\	8e- 8G\	16an\L	.
.	.	16b-\JJ	.
8AAnJ 8EE-\	8e-J 8F#X\	8cc'>\L	.
8r	8r	16b-\L	.
.	.	16a\JJ	.
=76	=76	=76	=76
8BB-L 8EE-\	8e-L 8G\	4.b-\	.
8BB- 8EE-\	8e- 8G\	.	.
8BB-J 8EE-\	8e-J 8G\	.	.
8r	8r	8cc\	.
=77	=77	=77	=77
8CL 8AA-\	8cL 8A-\	4.b-\	.
8En 8AA-\	8en 8A-\	.	.
8FJ 8AA-\	8fJ 8A-\	.	.
8r	8r	8a-\	.
=78	=78	=78	=78
8AA-\L	8A-<L 8F</	4.g\	.
8AA-\	8Bn< 8F</	.	.
8AA-\J	8c<J 8F</	.	.
8r	8r<	8f\	.
=79	=79	=79	=79
*2\right	*	*	*
!	!	!LO:TX:i:a:t=bis.	!
!	!	!LO:TX:t=P:problem:w źródle takty 79-80 oznaczone łukiem	!
2F 2AA-\	8c</L	8e-\L	.
.	16Bn</L	16dn\L	.
.	16c</JJ	16e-\JJ	.
.	8dn</L	8f\L	.
.	16c</L	16e-\L	.
.	[<16B-<X/JJ	16d\JJ	.
=80	=80	=80	=80
!	!	!	!LO:HP:a:t=crescendo
4E- 4GG\	8e-<L 8B-</]	4e-\	<
.	16dn</L	.	.
.	16e-</JJ	.	.
4r	8f</L	4r	.
.	16e-</L	.	.
.	16d</JJ	.	.
!	!	!LO:LB:g=original	!
=81	=81	=81	=81
!	!	!LO:TX:t=P:problem:takty 81-82 jako powtórzenie (bis)	!
2F 2AA-\	8c</L	8e-\L	.
.	16Bn</L	16dn\L	.
.	16c</JJ	16e-\JJ	.
.	8dn</L	8f\L	.
.	16c</L	16e-\L	.
.	16B-X</JJ	16d\JJ	.
=82	=82	=82	=82
!	!	!	!LO:HP:a:t=crescendo
4E- 4GG\	8e-<L 8B-</	4e-\	<
.	16dn</L	.	.
.	16e-</JJ	.	.
4r	8f</L	4r	.
.	16e-</L	.	.
.	16dnX</JJ	.	.
=83	=83	=83	=83
!	!	!	!LO:DY:a
8C\L	8c</L	8ee-\L	ff
16BBn\L	16Bn</L	16ddn\L	.
16C\JJ	16c</JJ	16ee-\JJ	.
8Dn\L	8dn</L	8ff\L	.
16C\L	16c</L	16ee-\L	.
16BB-X\JJ	16B-X</JJ	16dd\JJ	.
=84	=84	=84	=84
8AA-\L	8A-</L	8cc\L	.
16GG\L	16G</L	16bn\L	.
16AA-\JJ	16A-</JJ	16cc\JJ	.
8BB-\L	8B-</L	8ddn\L	.
16AA-\L	16A-</L	16cc\L	.
16GG\JJ	16G</JJ	16b-X\JJ	.
!LO:LB:g=original	!	!	!
=85	=85	=85	=85
8FF\L	8F</L	8a-\L	.
16EEn\L	16En</L	16g\L	.
16FF\JJ	16F</JJ	16a-\JJ	.
8BBB-\L	8BB-</L	8b-\L	.
8BB-\J	8B-</J	16a-\L	.
.	.	16f\JJ	.
=86	=86	=86	=86
4EE-\	4E-</	4e-/	.
8r	8ryy	4r	.
8r	8ryy	.	.
=87:|!	=87:|!	=87:|!	=87:|!
!	!	!LO:TX:a:t=3	!
!	!	!LO:TX:a:t=P:problem:w źródle jedna pauza wielotaktowa	!
4A- 4AA-\	4a-\	2r	.
8E-L 8EE-\	8e-\L	.	.
8F-XJ 8FF-X\	8f-X\J	.	.
=88	=88	=88	=88
4.C-X 4.CC-X\	4.c-X\	2r	.
8D- 8DD-\	8d-\	.	.
=89	=89	=89	=89
8E-L 8EE-\	8e-\L	2r	.
16D-L 16DD-\	16d-\L	.	.
16C-XJJ 16CC-X\	16c-X\JJ	.	.
8BB-\L 8BBB-\	8B-\L	.	.
8C-\J 8CC-\	8c-\J	.	.
=90	=90	=90	=90
4AA- 4AAA-\	4A-\	4r	.
8rGG	8rd	8r	.
8EE-\	8E-</	8e-\	.
=91	=91	=91	=91
4.EE-\	4.E-</	4.e-\	.
!	!	!LO:TX:i:a:t=risoluto e forte	!
8AA-\	8A-</	8a-\	.
=92	=92	=92	=92
4.AA-\	4.A-</	4.a-\	.
8C-X\	8c-X</	8cc-X\	.
=93	=93	=93	=93
16BB-\LL	16B-</LL	16b-\LL	.
16C-X\	16c-X</	16cc-X\	.
16BB-\	16B-</	16b-\	.
16AA-\JJ	16A-</JJ	16a-\JJ	.
16GG-X\LL	16G-X</LL	16g-X\LL	.
16AA-\	16A-</	16a-\	.
16GG-\	16G-</	16g-\	.
16FF\JJ	16F</JJ	16f\JJ	.
=94	=94	=94	=94
4E- 4EE-\	4e-\	4e-\	.
8BB-L 8BBB-\	8B-\L	4r	.
8C-XJ 8CC-X\	8c-X\J	.	.
!	!	!LO:LB:g=original	!
=95	=95	=95	=95
!	!	!LO:TX:t=P:problem:w źródle wpisano za dużo pauz-powinny być dwie	!
!	!	!LO:TX:a:t=3	!
!	!	!LO:TX:a:t=P:problem:w źródle jedna pauza wielotaktowa	!
4.GG-X 4.GGG-X\	4.G-X\	2r	.
8AA- 8AAA-\	8A-\	.	.
=96	=96	=96	=96
8BB-L 8BBB-\	8B-\L	2r	.
16AA-L 16AAA-\	16A-\L	.	.
16GG-XJJ 16GGG-X\	16G-X\JJ	.	.
8FFL 8FFF\	8F\L	.	.
8GG-J 8GGG-\	8G-\J	.	.
!LO:LB:g=original	!	!	!
=97	=97	=97	=97
4EE- 4EEE-\	4E-</	4r	.
8rFF	8rF<	8r	.
8BBB-\	8BB-</	8B-\	.
=98	=98	=98	=98
4.BBB-\	4.BB-</	4.B-\	.
8EE-\	8E-</	8e-\	.
=99	=99	=99	=99
4.EE-\	4.E-</	4.e-\	.
8GG-X\	8G-X</	8g-X\	.
=100	=100	=100	=100
16FF\LL	16F</LL	16f\LL	.
16GG-X\	16G-X</	16g-X\	.
16FF\	16F</	16f\	.
16EE-\JJ	16E-</JJ	16e-\JJ	.
16DD-\LL	16D-</LL	16d-\LL	.
16EE-\	16E-</	16e-\	.
16DD-\	16D-</	16d-\	.
16CC\JJ	16C</JJ	16c\JJ	.
=101	=101	=101	=101
8BBB-\L	8BB-</L	4B-\	.
8FFF\J	8FF</J	.	.
4BBB-\	4BB-</	16b-\LL	.
.	.	16cc-X\	.
.	.	16b-\	.
.	.	16a-\JJ	.
=102	=102	=102	=102
8BBB-\L	8BB-</L	16g-X\LL	.
.	.	16a-\	.
16CC\L	16C</L	16g-\	.
16DDn\JJ	16Dn</JJ	16f\JJ	.
8EE-\L	8E-</L	16e-\LL	.
.	.	16f\	.
16FF\L	16F</L	16e-\	.
16GG-X\JJ	16G-X</JJ	16d-\JJ	.
=103	=103	=103	=103
4AA-\	4A-</	8c-X\L	.
.	.	8A-\J	.
16AA-\LL	16A-</LL	4c-\	.
16BB-\	16B-</	.	.
16AA-\	16A-</	.	.
16GG-X\JJ	16G-X</JJ	.	.
=104	=104	=104	=104
16FF\LL	16F</LL	8c-X\L	.
16GG-\	16G-</	.	.
16FF\	16F</	16d-\L	.
16EE-\JJ	16E-</JJ	16e-\JJ	.
16DD-\LL	16D-</LL	8f\L	.
16EE-\	16E-</	.	.
16DD-\	16D-</	16g-X\L	.
16CC-X\JJ	16C-X</JJ	16a-\JJ	.
!	!	!LO:LB:g=original	!
=105	=105	=105	=105
8BBB-\L	8BB-</L	16g-X\LL	.
.	.	16a-\	.
16CC-X\L	16C-X</L	16g-\	.
16DD-\JJ	16D-</JJ	16f\JJ	.
8EE-\L	8E-</L	16e-\LL	.
.	.	16f\	.
16FF\L	16F</L	16e-\	.
16GG-X\JJ	16G-X</JJ	16d-\JJ	.
=106	=106	=106	=106
16GG-X\LL	16G-X</LL	8d-\L	.
16AA-\	16A-</	.	.
16GG-\	16G-</	16e-\L	.
16FF\JJ	16F</JJ	16f\JJ	.
16EE-\LL	16E-</LL	8g-X\L	.
16FF\	16F</	.	.
16EE-\	16E-</	16a-\L	.
16DD-\JJ	16D-</JJ	16b-\JJ	.
!LO:LB:g=original	!	!	!
=107	=107	=107	=107
8CCn\L	8Cn</L	16an\LL	.
.	.	16b-\	.
16DD-\L	16D-</L	16a\	.
16EE-\JJ	16E-</JJ	16g-X\JJ	.
8FF\L	8F</L	16f\LL	.
.	.	16g-\	.
16GG-X\L	16G-X</L	16f\	.
16AAn\JJ	16An</JJ	16e-\JJ	.
=108	=108	=108	=108
16AAn\LL	16An</LL	8e-\L	.
16BB-\	16B-</	.	.
16AA\	16A</	16f\L	.
16GG-X\JJ	16G-X</JJ	16g-X\JJ	.
16FF\LL	16F</LL	8an\L	.
16GG-\	16G-</	.	.
16FF\	16F</	16b-\L	.
16EE-\JJ	16E-</JJ	16cc\JJ	.
=109	=109	=109	=109
!	!LO:TX:t=P:problem:mixedbeam	!	!
16DD-\LL	16D-</LL	4b-^^>\	.
16G-X\	16g-X\	.	.
16F\	16f\	.	.
16E-\JJ	16e-/JJ	.	.
16D-\LL	16d-\LL	8f^^>\L	.
16E-\	16e-\	.	.
16D-\	16d-\	8g-X^^>\J	.
16C\JJ	16c\JJ	.	.
=110	=110	=110	=110
16BB-\LL	16B-</LL	4.d-^^<\	.
16C\	16c</	.	.
16BB-\	16B-</	.	.
16AA-\JJ	16A-</JJ	.	.
16GG-X\LL	16G-X</LL	.	.
16AA-\	16A-</	.	.
16GG-\	16G-</	8e-\	.
16FF\JJ	16F</JJ	.	.
=111	=111	=111	=111
16EE-\LL	16E-</LL	8f\L	.
16AAn\	16An</	.	.
16GG-X\	16G-X</	16e-\L	.
16FF\JJ	16F</JJ	16d-\JJ	.
16EE-\LL	16E-</LL	8c\L	.
16GG-\	16G-</	.	.
16FF\	16F</	8d-\J	.
16EE-\JJ	16E-</JJ	.	.
=112	=112	=112	=112
16DD-\LL	16D-</LL	16B-\LL	.
16EE-\	16E-</	16c\	.
16DD-\	16D-</	16B-\	.
16CC\JJ	16C</JJ	16A-\JJ	.
16BBB-\LL	16BB-</LL	8G\L	.
16DD-\	16D-</	.	.
16GGG\	16GG</	8cc\J	.
16EEn\JJ	16En</JJ	.	.
!	!	!LO:LB:g=original	!
=113	=113	=113	=113
4FF\	4F</	16cc\LL	.
.	.	16dd-\	.
.	.	16cc\	.
.	.	16b-\JJ	.
8CC\L	8C</L	16a-\LL	.
.	.	16b-\	.
8DD-\J	8D-</J	16a-\	.
.	.	16g\JJ	.
=114	=114	=114	=114
4.AAA-\	4.AA-</	16f\LL	.
.	.	16gn\	.
.	.	16f\	.
.	.	16e-\JJ	.
.	.	16d-\LL	.
.	.	16e-\	.
8BBB-\	8BB-</	16d-\	.
.	.	16c\JJ	.
=115	=115	=115	=115
8CC/L<	8C</L	16B-\LL	.
.	.	16en\	.
16BBB-/L	16BB-</L	16d-\	.
16AAA-/JJ	16AA-</JJ	16c\JJ	.
8GGG/L<	8GG</L	16B-\LL	.
.	.	16d-\	.
8AAA-/J	8AA-</J	16c\	.
.	.	16B-\JJ	.
!LO:LB:g=original	!	!	!
=116	=116	=116	=116
4FFF\	4FF</	16A-\LL	.
.	.	16B-\	.
.	.	16A-\	.
.	.	16G\JJ	.
4GG 4GGG\	16F</LL	4r	.
.	16A-</	.	.
.	16Dn</	.	.
.	16Bn</JJ	.	.
=117	=117	=117	=117
16C\LL	16c\LL	4cc^^>\	.
16A-\	16a-\	.	.
16G\	16g\	.	.
16F\JJ	16f\JJ	.	.
16E-\LL	16e-\LL	8g\L	.
16F\	16f\	.	.
16E-\	16e-\	8a-\J	.
16Dn\JJ	16dn\JJ	.	.
=118	=118	=118	=118
16C\LL	16c</LL	4.e-\	.
16BB-\	16B-</	.	.
16AA-\	16A-</	.	.
16GG\JJ	16G</JJ	.	.
16FF\LL	16F</LL	.	.
16EE-\	16E-</	.	.
16DDn\	16Dn</	8f\	.
16CC\JJ	16C</JJ	.	.
=119	=119	=119	=119
16BBBn\LL	16BBn</LL	8g\L	.
16GGG\JJ	16GG</	.	.
!LO:TX:b:i:t=con 8va	!	!	!
16BBBn\LLyy	16BB</	16f\L	.
16GGG\JJyy	16GG</JJ	16e-\JJ	.
16BBBn\LLyy	16BB</LL	8dn\L	.
16GGG\yy	16GG</	.	.
16BBBn\yy	16BB</	8e-\J	.
16GGG\JJyy	16GG</JJ	.	.
!	!	!LO:LB:g=original	!
=120	=120	=120	=120
16CCLL<yy	16C</LL	4.c\	.
16GGGyy	16GG</	.	.
16CCyy	16C</	.	.
16GGGJJyy	16GG</JJ	.	.
16CCLL<yy	16C</LL	.	.
16GGGyy	16GG</	.	.
16CCyy	16C</	8c\	.
16GGGJJyy	16GG</JJ	.	.
=121	=121	=121	=121
16CC\LL	16C</LL	8a-\L	.
16GGG\	16GG</	.	.
16CC\	16C</	16g\L	.
16GGG\JJ	16GG</JJ	16f\JJ	.
16CC\LL	16C</LL	8e-\L	.
16GGG\	16GG</	.	.
16CC\	16C</	8f\J	.
16GGG\JJ	16GG</JJ	.	.
=122	=122	=122	=122
16DDn\LL	16Dn</LL	4.dn\	.
16GGG\	16GG</	.	.
16DD\	16D</	.	.
16GGG\JJ	16GG</JJ	.	.
16DD\LL	16D</LL	.	.
16GGG\	16GG</	.	.
16DD\	16D</	8d\	.
16GGG\JJ	16GG</JJ	.	.
=123	=123	=123	=123
16DDn\LL	16Dn</LL	8b-\L	.
16GGG\	16GG</	.	.
16DD\	16D</	16a-\L	.
16GGG\JJ	16GG</JJ	16g\JJ	.
16DD\LL	16D</LL	8f\L	.
16GGG\	16GG</	.	.
16DD\	16D</	8g\J	.
16GGG\JJ	16GG</JJ	.	.
!LO:PB:g=original	!	!	!
=124	=124	=124	=124
16EE-\LL	16E-</LL	8cc\L	.
16GGG\	16GG</	.	.
16EE-\	16E-</	16b-\L	.
16GGG\JJ	16GG</JJ	16a-\JJ	.
16EE-\LL	16E-</LL	8g\L	.
16GGG\	16GG</	.	.
!	!	!	!LO:HP:a:t=cresc
16EE-\	16E-</	8a-\J	<
16GGG\JJ	16GG</JJ	.	.
=125	=125	=125	=125
16EE-\LL	16E-</LL	8dd-\L	.
16GGG\	16GG</	.	.
16EE-\	16E-</	16cc\L	.
16GGG\JJ	16GG</JJ	16b-\JJ	.
!	!	!	!LO:HP:a
16FF\LL	16F</LL	8ddn\L	<
16AAA-\	16AA-</	.	.
16FF\	16F</	16cc\L	.
16AAA-\JJ	16AA-</JJ	16bn\JJ	.
=126	=126	=126	=126
16FF#X\LL	16F#X</LL	8ee-\L	.
16AAAn\	16AAn</	.	.
16FF#\	16F#</	16ddn\L	.
16AAA\JJ	16AA</JJ	16cc\JJ	.
16GG\LL	16G</LL	8ff\L	.
16BBB-\	16BB-</	.	.
16GG\	16G</	16ee-\L	.
16BBB-\JJ	16BB-</JJ	16dd-X\JJ	[[
=127	=127	=127	=127
16GG\LL	16G</LL	8ff^^>\L	.
16BBB-\	16BB-</	.	.
16CC\	16C</	16ee-\L	.
!	!	!	!LO:DY:a
16DD-\JJ	16D-</JJ	16dd-X\JJ	ff
16EE-\LL	16E-</LL	16cc\LL	.
16GG\	16G</	16b-\	.
16AA-\	16A-</	16a-\	.
16BB-\JJ	16B-</JJ	16g\JJ	.
!	!	!LO:LB:g=original	!
=128	=128	=128	=128
16C\LL	16c\LL	16f\LL	.
16D-\	16d-\	16e-\	.
16E-\	16e-\	16d-\	.
16F\JJ	16f\JJ	16c\JJ	.
8G\L	8g\L	8B-'>\L	.
8E-J 8EE-\	8e-\J	8e-'>\J	.
=129	=129	=129	=129
4A- 4AA-\	4a-\	4A-\	.
8FL 8FF\	8f\L	4r	.
8GJ 8GG\	8g\J	.	.
=130	=130	=130	=130
!	!	!LO:TX:a:t=2	!
!	!	!LO:TX:a:t=P:problem:w źródle jedna pauza wielotaktowa	!
4.E- 4.EE-\	4.e-\	2r	.
8F 8FF\	8f\	.	.
=131	=131	=131	=131
8E-L 8EE-\	8e-\L	2r	.
16D-L 16DD-\	16d-\L	.	.
16CJJ 16CC\	16c\JJ	.	.
8BB-L 8BBB-\	8B-\L	.	.
8CJ 8CC\	8c\J	.	.
=132	=132	=132	=132
4AA- 4AAA-\	4A-\	4r	.
4r	4r	8r	.
!	!	!	!LO:DY:a
.	.	8ee-\	pp
*clefG2	*	*	*
=133	=133	=133	=133
8r	4cc\	4aa-\	.
8a-L 8A-\	.	.	.
8a- 8A-\	8cc\L	8ff\L	.
8a-J 8A-\	8cc\J	8gg\J	.
=134	=134	=134	=134
8r	4b-\	4.ee-\	.
8gL 8G\	.	.	.
8g 8G\	8b-\L	.	.
8gJ 8G\	8b-\J	8een\	.
=135	=135	=135	=135
8r	4a-\	8ff\L	.
8fL 8F\	.	16ee-\L	.
.	.	16dd-\JJ	.
8f 8F\	8a-\L	8cc\L	.
8fJ 8F\	8a-\J	8bn\J	.
!LO:LB:g=original	!	!	!
=136	=136	=136	=136
8enL 8En\	4g\	4cc\	.
*clefF4	*	*	*
8C\	.	.	.
8CC\J	8r	4r	.
8r	8c\	.	.
=137	=137	=137	=137
!	!	!LO:TX:a:t=3	!
4F 4FF\	4f\	2r	.
8CL 8CC\	8c\L	.	.
8D-J 8DD-\	8d-\J	.	.
=138	=138	=138	=138
4.AA- 4.AAA-\	4.A-\	2r	.
8BB- 8BBB-\	8B-\	.	.
=139	=139	=139	=139
8CL 8CC\	8c</L	2r	.
16BB-L 16BBB-\	16B-</L	.	.
16AA-JJ 16AAA-\	16A-</JJ	.	.
8GGL 8GGG\	8G</L	.	.
8AA-J 8AAA-\	8A-</J	.	.
=140	=140	=140	=140
4FF 4FFF\	4F</	4r	.
4rFF	4rA<	8r	.
!	!	!	!LO:DY:a
.	.	8cc\	p
!	!	!LO:LB:g=original	!
=141	=141	=141	=141
8r	4a-\	4ff\	.
8fL 8F\	.	.	.
8f 8F\	8a-\L	8cc\L	.
8fJ 8F\	8a-\J	8dd-\J	.
=142	=142	=142	=142
!	!	!	!LO:HP:a:t=cresc
8r	4g-X\	4.a-\	<
8e-L 8E-\	.	.	.
8e- 8E-\	8g-\L	.	.
8e-J 8E-\	8g-\J	8an\	.
=143	=143	=143	=143
8r	8f\	8b-\L	.
!	!	!	!LO:HP:a
8d- 8D-\	8r	16a-\L	<
.	.	16g\JJ	.
8r	8G\	8f'>\L	.
8d- 8E-\	8r	8e-'>\J	[
=144	=144	=144	=144
8c\L	4A-\	4a-'>\	.
8A-\	.	.	.
8AA-\J	8r	4r	.
8r	8a-\	.	.
=145	=145	=145	=145
!	!	!LO:TX:a:t=P:problem:w źródle jedna pauza wielotaktowa	!
!	!	!LO:TX:a:t=3	!
12BB-\L	4a-\	2r	.
12E-\	.	.	.
12B-\J	.	.	.
12e-\L	8g\L	.	.
12B-\	.	.	.
.	8dd-\J	.	.
12E-\J	.	.	.
=146	=146	=146	=146
12AA-\L	4dd-\	2r	.
12E-\	.	.	.
12A-\J	.	.	.
12e-\L	8cc\L	.	.
12A-\	.	.	.
.	8aa-\J	.	.
12E-\J	.	.	.
=147	=147	=147	=147
12BB-\L	4aa-\	2r	.
12E-\	.	.	.
12G\J	.	.	.
12B-\L	8gg\L	.	.
12G\	.	.	.
.	8ddd-\J	.	.
12E-\J	.	.	.
=148	=148	=148	=148
12AA-\L	4ddd-\	4r	.
12E-\	.	.	.
12A-\J	.	.	.
12c\L	8ccc\	8r	.
12A-\	.	.	.
.	8r	8a-\	.
12E-\J	.	.	.
!LO:LB:g=original	!	!	!
=149	=149	=149	=149
12BB-\L	12B-\L	4a-\	.
12E-\	12e-\	.	.
12G\J	12g\J	.	.
12e-\L	12ee-\L	8g\L	.
12G\	12g\	.	.
!	!	!LO:TX:i:a:t=espressivo	!
.	.	8dd-\J	.
12E-\J	12e-\J	.	.
=150	=150	=150	=150
12AA-\L	12A-\L	4dd-\	.
12E-\	12e-\	.	.
12A-\J	12a-\J	.	.
12e-\L	12ee-\L	8cc\L	.
12A-\	12a-\	.	.
.	.	8aa-\J	.
12E-\J	12e-\J	.	.
=151	=151	=151	=151
12BB-\L	12B-\L	4aa-\	.
12En\	12en\	.	.
12G\J	12g\J	.	.
12B-\L	12b-\L	8gg\L	.
12G\	12g\	.	.
.	.	8ddd-\J	.
12En\J	12en\J	.	.
!	!	!LO:PB:g=original	!
=152	=152	=152	=152
12AA-\L	12A-\L	4ddd-^^>\	.
12F\	12f\	.	.
12A-\J	12a-\J	.	.
12c\L	12cc\L	8ccc\L	.
12A-\	12a-\	.	.
.	.	8ff\J	.
12F\J	12f\J	.	.
=153	=153	=153	=153
12AAn\L	12An\L	4ff^^>\	.
12E-\	12e-\	.	.
12F\J	12f\J	.	.
12c\L	12cc\L	8ee-\L	.
12F\	12f\	.	.
.	.	8aan\J	.
12E-\J	12e-\J	.	.
=154	=154	=154	=154
12BB-\L	12B-\L	4ccc^^>\	.
12Dn\	12dn\	.	.
12F\J	12f\J	.	.
12B-\L	12b-\L	8bb-\L	.
12F\	12f\	.	.
.	.	8ddn\J	.
12D\J	12d\J	.	.
=155	=155	=155	=155
12GG\L	12G\L	4ee-^^>\	.
12D-\	12d-\	.	.
12E-\J	12e-\J	.	.
12B-\L	12b-\L	8dd-\L	.
12E-\	12e-\	.	.
.	.	8gg\J	.
12D-\J	12d-\J	.	.
=156	=156	=156	=156
12AA-\L	12A-\L	4bb-^^>\	.
12C\	12c\	.	.
12E-\J	12e-\J	.	.
12A-\L	12a-\L	8aa-\L	.
12E-\	12e-\	.	.
.	.	8cc\J	.
12C\J	12c\J	.	.
=157	=157	=157	=157
12DD-\L	12D-</L	4cc^^>\	.
12AA-\	12A-</	.	.
12BB-\J	12B-</J	.	.
12F\L	12f</L	8b-\L	.
12BB-\	12B-</	.	.
.	.	8een\J	.
12AA-\J	12A-</J	.	.
=158	=158	=158	=158
12EE-\L	12E-</L	4gg^^>\	.
12GG\	12G</	.	.
12D-\J	12d-</J	.	.
!	!LO:TX:t=P:problem:mixedbeam	!	!
12G\L	12g\L	8ff\L	.
12D-\	12d-</	.	.
.	.	8dd-\J	.
12GG\J	12G</J	.	.
!LO:LB:g=original	!	!	!
=159	=159	=159	=159
12FF\L	12F</L	4bn\	.
12AA-\	12A-</	.	.
12C\J	12c</J	.	.
12A-\L	12a-\L	4cc\	.
12C\	12c\	.	.
12AA-\J	12A-\J	.	.
=160	=160	=160	=160
!	!LO:TX:t=P:problem:mixedbeam	!	!LO:HP:a:t=cresc
12GG\L	12G</L	4r	<
12D-\	12e-\	.	.
12E-\J	12g\J	.	.
12B-\L	12b-\L	4ee-\	.
12E-\	12g\	.	.
12D-\J	12e-\J	.	.
=161	=161	=161	=161
12AA-\L	12A-\L	4r	.
12E-\	12e-\	.	.
12A-\J	12a-\J	.	.
12c\L	12cc\L	4ff'> 4ee-\	.
12A-\	12a-\	.	.
12E-\J	12e-\J	.	.
!	!	!LO:LB:g=original	!
=162	=162	=162	=162
12BB-\L	12B-\L	4r	.
12E-\	12e-\	.	.
12G\J	12g\J	.	.
12e-\L	12ee-\L	4gg 4ee-\	.
12G\	12g\	.	.
12E-\J	12e-\J	.	.
=163	=163	=163	=163
!	!	!LO:TX:i:a:t=molto	!
12C\L	12c\L	4r	.
12E-\	12e-\	.	.
12A-\J	12a-\J	.	.
12e-\L	12ee-\L	4aa- 4ee-\	.
12A-\	12a-\	.	.
12E-\J	12e-\J	.	.
=164	=164	=164	=164
12D-\L	12d-\L	4r	.
12A-\	12a-\	.	.
12d-\J	12dd-\J	.	.
12f\L	12ff\L	4bb-\	.
12d-\	12dd-\	.	.
12A-\J	12a-\J	.	.
=165	=165	=165	=165
12Dn\L	12dn\L	4bbn 4ff\	.
12A-\	12a-\	.	.
12dn\J	12ddn\J	.	.
12f\L	12ff\L	8bb 8ff\	.
12d\	12dd\	.	.
.	.	8r	.
12A-\J	12a-\J	.	.
=166	=166	=166	=166
12Dn\L	12dn\L	4r	.
12A-\	12a-\	.	.
12dn\J	12ddn\J	.	.
12f\L	12ff\L	8bbn\	.
12d\	12dd\	.	.
.	.	8r	.
12A-\J	12a-\J	.	.
=167	=167	=167	=167
12Dn\L	12dn\L	4r	.
12A-\	12a-\	.	.
12dn\J	12ddn\J	.	.
12f\L	12ff\L	4bbn 4aa-X^^>\	.
12d\	12dd\	.	.
12A-\J	12a-\J	.	.
=168	=168	=168	=168
12Dn\L	12dn\L	4bbn 4gg^^>\	.
12G\	12g\	.	.
12dn\J	12ddn\J	.	.
12f\L	12ff\L	8bbn 8ff^^>\	.
12d\	12dd\	.	.
.	.	8ryy	.
12F\J	12f\J	.	.
!LO:LB:g=original	!	!	!
=169	=169	=169	=169
!	!	!	!LO:DY:a
12E-\L	12e-\L	4.ccc\	ff
12c\	12cc\	.	.
12a-\J	12aa-\J	.	.
12F\L	12f\L	.	.
12dn\	12ddn\	.	.
.	.	8bbn\	.
12a-\J	12aa-\J	.	.
=170	=170	=170	=170
12E-\L	12e-\L	4.ccc\	.
12c\	12cc\	.	.
12a-\J	12aa-\J	.	.
12F\L	12f\L	.	.
12dn\	12ddn\	.	.
.	.	8bbn\	.
12a-\J	12aa-\J	.	.
=171	=171	=171	=171
!	!	!	!LO:DY:a
16E-\LL	16e-\LL	16ccc\LL	ff
16a-\	16aa-\	16bbn\	.
16F\	16f\	16ccc\	.
16a-\JJ	16aa-\JJ	16bb\JJ	.
*	*	*rep	*
16E-\LL	16e-\LL	16ccc\LL	.
16a-\	16aa-\	16bbn\	.
16F\	16f\	16ccc\	.
16a-\JJ	16aa-\JJ	16bb\JJ	.
*	*	*Xrep	*
=172	=172	=172	=172
8E-\	8e-\	4ccc'>\	.
8r	8r	.	.
4EE-;>\	4ee- 4g 4d-X;>\	8eee-'>\	.
.	.	8r	.
!	!	!LO:LB:g=original	!
=173	=173	=173;>	=173
*8va	*8va	*	*
!LO:TX:t=P:problem:znak "8va" pod nutami	!LO:TX:t=P:problem:znak "8va" pod nutami	!	!
!	!LO:TX:a:i:t=Prestissimo.	!	!LO:DY:a
12a-\L	12aa-\L	4.ee-^^>\	pp
12cc\	12ccc\	.	.
12cc\J	12ccc\J	.	.
12cc\L	12ccc\L	.	.
12ee-\	12eee-\	.	.
!	!	!LO:TX:i:a:t=Prestissimo possible.-	!
.	.	8aa-\	.
12ee-\J	12eee-\J	.	.
*clefG2	*	*	*
=174	=174	=174	=174
12ee-\L	12eee-\L	4.aa-^^>\	.
12aa-\	12aaa-\	.	.
12aa-\J	12aaa-\J	.	.
12ff\L	12fff\L	.	.
12aa-\	12aaa-\	.	.
.	.	8ccc\	.
12aa-\J	12aaa-\J	.	.
=175	=175	=175	=175
!	!	!LO:TUP:b:problem:klamra łukowa	!
12ee-\L	12eee-\L	12eee-\L	.
12ccc\	12cccc\	12dddn\	.
12bbn\J	12bbbn\J	12eee-\J	.
!	!	!LO:TUP:b:problem:klamra łukowa	!
12ccc\L	12cccc\L	12fff\L	.
12aa-\	12aaa-\	12eee-\	.
12ff\J	12fff\J	12dddn\J	.
=176	=176	=176	=176
12ee-\L	12eee-\L	4.eee-\	.
12aa-\	12aaa-\	.	.
12gg\J	12ggg\J	.	.
12aa-\L	12aaa-\L	.	.
12ee-\	12eee-\	.	.
!	!	!	!LO:DY:a:rj
.	.	8cccc^^>\	p
12cc\J	12ccc\J	.	.
=177	=177	=177	=177
12a-\L	12aa-\L	4bbb-^^>\	.
12dd-\	12ddd-\	.	.
12een\J	12eeen\J	.	.
12a-\L	12aa-\L	4aaa-\	.
12dd-\	12ddd-\	.	.
12ff\J	12fff\J	.	.
=178	=178	=178	=178
12a-\L	12aa-\L	4.fff^^>\	.
12dd-\	12ddd-\	.	.
12gg\J	12ggg\J	.	.
12a-\L	12aa-\L	.	.
12cc\	12ccc\	.	.
.	.	8eee-\	.
12aa-\J	12aaa-\J	.	.
*X8va	*X8va	*	*
!LO:PB:g=original	!	!	!
=179	=179	=179	=179
!LO:TX:t=P:problem:brak źródła	!LO:TX:t=P:problem:brak źródła	!LO:TUP:b:problem:klamra łukowa	!LO:DY:a
2ryy	2ryy	12bb-^^>\L	p
.	.	12aan\	.
.	.	12bb-\J	.
!	!	!LO:TUP:b:problem:klamra łukowa	!
.	.	12ccc\L	.
.	.	12bb-\	.
.	.	12aan\J	.
=180	=180	=180	=180
2ryy	2ryy	8bb-'>\	.
.	.	8r	.
.	.	8r	.
.	.	8e-'>\	.
=181	=181	=181	=181
!	!	!	!LO:DY:a
2ryy	2ryy	4.e-^^>\	f
.	.	8a-\	.
=182	=182	=182	=182
2ryy	2ryy	4.a-^^>\	.
.	.	8cc\	.
!	!	!LO:LB:g=original	!
=183	=183	=183	=183
2ryy	2ryy	8ee-\L	.
.	.	16ddn\L	.
!	!	!	!LO:DY:a
.	.	16ee-\JJ	f
.	.	8ff\L	.
.	.	16ee-\L	.
.	.	16ddn\JJ	.
=184	=184	=184	=184
2ryy	2ryy	4.ee-^^>\	.
.	.	8ff\	.
=185	=185	=185	=185
2ryy	2ryy	4.ee-^^>\	.
.	.	8dd-\	.
=186	=186	=186	=186
2ryy	2ryy	4.cc^^>\	.
.	.	8b-\	.
=187	=187	=187	=187
!	!	!LO:TUP:b:problem:klamra łukowa	!LO:DY:a
2ryy	2ryy	12a-\L	f
.	.	12g\	.
.	.	12a-\J	.
!	!	!LO:TUP:a:problem:klamra łukowa	!
.	.	12b-\L	.
.	.	12a-\	.
.	.	12g\J	.
=188	=188	=188	=188
2ryy	2ryy	4a-\	.
.	.	4r	.
=189	=189	=189	=189
!	!	!LO:TUP:a:problem:klamra łukowa	!LO:DY:a
2ryy	2ryy	12a-\L	ff
.	.	12g\	.
.	.	12a-\J	.
!	!	!LO:TUP:a:problem:klamra łukowa	!
.	.	12b-\L	.
.	.	12a-\	.
.	.	12g\J	.
=190	=190	=190	=190
2ryy	2ryy	4a-\	.
.	.	4r	.
=191	=191	=191	=191
!	!	!LO:TUP:a:problem:klamra łukowa	!LO:DY:a
2ryy	2ryy	12a-\L	ff
.	.	12g\	.
.	.	12a-\J	.
!	!	!LO:TUP:a:problem:klamra łukowa	!
.	.	12b-\L	.
.	.	12a-\	.
.	.	12b-\J	.
=192	=192	=192	=192
!	!	!LO:TUP:a:problem:klamra łukowa	!
2ryy	2ryy	12cc\L	.
.	.	12b-\	.
.	.	12cc\J	.
!	!	!LO:LB:g=original	!
*	*	*Xtuplet	*
!	!	!LO:TX:t=P:problem:brak oznaczenia trioli-do końca	!
.	.	12dd-\L	.
.	.	12cc\	.
.	.	12dd-\J	.
=193	=193	=193	=193
2ryy	2ryy	12ee-\L	.
.	.	12ddn\	.
.	.	12ee-\J	.
.	.	12ee-\L	.
.	.	12ddn\	.
.	.	12ee-\J	.
=194	=194	=194	=194
2ryy	2ryy	12ee-\L	.
.	.	12ddn\	.
.	.	12ee-\J	.
.	.	12ee-\L	.
.	.	12ddn\	.
.	.	12ee-\J	.
=195	=195	=195	=195
!	!	!	!LO:HP:a:t=crescendo
2ryy	2ryy	12aa-\L	<
.	.	12gg\	.
.	.	12aa-\J	.
.	.	12bb-\L	.
.	.	12aa-\	.
.	.	12bb-\J	.
=196	=196	=196	=196
2ryy	2ryy	12ccc\L	.
.	.	12bb-\	.
.	.	12ccc\J	.
.	.	12ddd-\L	.
.	.	12ccc\	.
.	.	12ddd-\J	.
=197	=197	=197	=197
2ryy	2ryy	12eee-\L	.
.	.	12dddn\	.
.	.	12eee-\J	.
.	.	12eee-\L	.
.	.	12dddn\	.
.	.	12eee-\J	.
=198	=198	=198	=198
2ryy	2ryy	12eee-\L	.
.	.	12dddn\	.
.	.	12eee-\J	.
.	.	12eee-\L	.
.	.	12dddn\	.
.	.	12eee-\J	.
=199	=199	=199	=199
*	*	*tremolo	*
!	!	!LO:TX:t=P:problem:w źródle takty 199-200 oznaczone łukiem	!
!	!	!LO:TX:i:a:t=bis	!LO:DY:a
2ryy	2ryy	16ccc\LL	fff
.	.	16ccc\	.
.	.	16ccc\	.
.	.	16ccc\JJ	.
.	.	4eee-\	.
=200	=200	=200	=200
2ryy	2ryy	16ccc\LL	.
.	.	16ccc\	.
.	.	16ccc\	.
.	.	16ccc\JJ	.
.	.	4eee-\	.
!	!	!LO:LB:g=original	!
=201	=201	=201	=201
!	!	!LO:TX:t=P:problem:takty 201-202 jako powtórzenie (bis)	!LO:DY:a
2ryy	2ryy	16ccc\LL	fff
.	.	16ccc\	.
.	.	16ccc\	.
.	.	16ccc\JJ	.
.	.	4eee-\	.
=202	=202	=202	=202
2ryy	2ryy	16ccc\LL	.
.	.	16ccc\	.
.	.	16ccc\	.
.	.	16ccc\JJ	.
*	*	*Xtremolo	*
.	.	4eee-\	.
=203	=203	=203	=203
2ryy	2ryy	2aa-^^>\	.
=204	=204	=204	=204
2ryy	2ryy	2aaa#X^^>\	.
=205	=205	=205	=205
.	.	32qqa- 32qqc\	.
!	!	!LO:TX:b:i:t=Fine.	!
2ryy	2ryy	2a-^^> 2c;>\	.
==	==	==	==
*-	*-	*-	*-
!!!system-decoration: [(s1)(s2,s3)]
!!!RDF**kern: | = vertical stroke
!!!RDF**kern: > = above
!!!RDF**kern: < = below
!!!RDF**kern: N = linked
!!!EED: Antoni Szymański
!!!EST: 2021-05-20
!!!ENC: Anastazja Marusiak
!!!END: 2021-04-26
